22x22/actions/distribute-horizontal-gaps.svg

<svg xmlns="http://www.w3.org/2000/svg" viewBox="0 0 22 22">
  <defs id="defs3051">
    <style type="text/css" id="current-color-scheme">
      .ColorScheme-Text {
        color:#5d656b;
      }
      </style>
  </defs>
 <path 
     style="fill:currentColor;fill-opacity:1;stroke:none" 
     d="m3 7v8h5v-8h-5m11 0v8h5v-8h-5m-10 1h3v6h-3v-6m11 0h3v6h-3v-6m-6 1v4h1v-1h2v1h1v-4h-1v1h-2v-1h-1"
     class="ColorScheme-Text"
     />
</svg>

<svg xmlns="http://www.w3.org/2000/svg" viewBox="0 0 22 22"><path style="fill:currentColor;fill-opacity:1;stroke:none;color:#5d656b" d="M3 7v8h5V7H3m11 0v8h5V7h-5M4 8h3v6H4V8m11 0h3v6h-3V8M9 9v4h1v-1h2v1h1V9h-1v1h-2V9H9"/></svg>
